fs/building_retail_money_24_filled.svg

<svg viewBox="0 0 24 24" fill="none" xmlns="http://www.w3.org/2000/svg" height="1em" width="1em">
  <path d="M7.5 11.5V9.5H16.5V11.5H7.5ZM4 3C2.89543 3 2 3.89543 2 5C2 5.74028 2.4022 6.38663 3 6.73244V20.25C3 20.6642 3.33579 21 3.75 21H6V15.75C6 15.3358 6.33579 15 6.75 15H10.75C11.1642 15 11.5 15.3358 11.5 15.75V15.9998C11.9561 15.3927 12.6822 15 13.5 15H21V6.73244C21.5978 6.38663 22 5.74028 22 5C22 3.89543 21.1046 3 20 3H4ZM3.5 5C3.5 4.72386 3.72386 4.5 4 4.5H20C20.2761 4.5 20.5 4.72386 20.5 5C20.5 5.27614 20.2761 5.5 20 5.5H4C3.72386 5.5 3.5 5.27614 3.5 5ZM6.75 8H17.25C17.6642 8 18 8.33579 18 8.75V12.25C18 12.6642 17.6642 13 17.25 13H6.75C6.33579 13 6 12.6642 6 12.25V8.75C6 8.33579 6.33579 8 6.75 8ZM10 16.5V21H7.5V16.5H10ZM12 17.5C12 16.6716 12.6716 16 13.5 16H21.5C22.3284 16 23 16.6716 23 17.5V21.5C23 22.3284 22.3284 23 21.5 23H13.5C12.6716 23 12 22.3284 12 21.5V17.5ZM22 18C21.4477 18 21 17.5523 21 17H20C20 18.1046 20.8954 19 22 19V18ZM22 20C20.8954 20 20 20.8954 20 22H21C21 21.4477 21.4477 21 22 21V20ZM14 17C14 17.5523 13.5523 18 13 18V19C14.1046 19 15 18.1046 15 17H14ZM15 22C15 20.8954 14.1046 20 13 20V21C13.5523 21 14 21.4477 14 22H15ZM19.25 19.5C19.25 18.5335 18.4665 17.75 17.5 17.75C16.5335 17.75 15.75 18.5335 15.75 19.5C15.75 20.4665 16.5335 21.25 17.5 21.25C18.4665 21.25 19.25 20.4665 19.25 19.5Z" fill="#212121"/>
</svg>

<svg viewBox="0 0 24 24" fill="none" xmlns="http://www.w3.org/2000/svg" height="1em" width="1em">
  <path d="M7.5 11.5v-2h9v2h-9ZM4 3a2 2 0 0 0-1 3.732V20.25c0 .414.336.75.75.75H6v-5.25a.75.75 0 0 1 .75-.75h4a.75.75 0 0 1 .75.75V16c.456-.607 1.182-1 2-1H21V6.732A2 2 0 0 0 20 3H4Zm-.5 2a.5.5 0 0 1 .5-.5h16a.5.5 0 0 1 0 1H4a.5.5 0 0 1-.5-.5Zm3.25 3h10.5a.75.75 0 0 1 .75.75v3.5a.75.75 0 0 1-.75.75H6.75a.75.75 0 0 1-.75-.75v-3.5A.75.75 0 0 1 6.75 8ZM10 16.5V21H7.5v-4.5H10Zm2 1a1.5 1.5 0 0 1 1.5-1.5h8a1.5 1.5 0 0 1 1.5 1.5v4a1.5 1.5 0 0 1-1.5 1.5h-8a1.5 1.5 0 0 1-1.5-1.5v-4Zm10 .5a1 1 0 0 1-1-1h-1a2 2 0 0 0 2 2v-1Zm0 2a2 2 0 0 0-2 2h1a1 1 0 0 1 1-1v-1Zm-8-3a1 1 0 0 1-1 1v1a2 2 0 0 0 2-2h-1Zm1 5a2 2 0 0 0-2-2v1a1 1 0 0 1 1 1h1Zm4.25-2.5a1.75 1.75 0 1 0-3.5 0 1.75 1.75 0 0 0 3.5 0Z" fill="#212121"/>
</svg>
